icons/svgs/car-bus-solid.svg

<svg width="24" height="24" viewBox="0 0 24 24" fill="none" xmlns="http://www.w3.org/2000/svg">
<path d="M1.2 18.25C0.525 18.25 0 17.7031 0 17V4.92969C0 4.30469 0.3375 3.71875 0.8625 3.44531C2.6625 2.50781 4.6125 2 6.6 2H7.7625C9.75 2 11.7 2.50781 13.5 3.44531C14.025 3.71875 14.4 4.30469 14.4 4.92969V7H13.575C13.0125 7 12.4875 7.11719 12 7.35156V6.6875C12 6.17969 11.5875 5.75 11.1 5.75H7.8V10.75H9.3375L8.7375 12.6641C7.8 13.3672 7.2 14.5 7.2 15.75V18.25H4.8V19.5C4.8 20.2031 4.2375 20.75 3.6 20.75H3C2.325 20.75 1.8 20.2031 1.8 19.5V18.25H1.2ZM3.3 5.75C2.775 5.75 2.4 6.17969 2.4 6.6875V9.8125C2.4 10.3594 2.775 10.75 3.3 10.75H6.6V5.75H3.3ZM3.6 13.5625C3.075 13.5625 2.7 13.9922 2.7 14.5C2.7 15.0469 3.075 15.4375 3.6 15.4375C4.0875 15.4375 4.5 15.0469 4.5 14.5C4.5 13.9922 4.0875 13.5625 3.6 13.5625ZM13.575 10.75C13.3125 10.75 13.0875 10.9453 13.0125 11.1797L12.3375 13.25H20.025L19.35 11.1797C19.275 10.9453 19.05 10.75 18.7875 10.75H13.575ZM10.725 10.3984C11.1375 9.10938 12.3 8.25 13.575 8.25H18.7875C20.0625 8.25 21.225 9.10938 21.6375 10.3984L22.6125 13.5234C23.4375 13.9141 24 14.7734 24 15.75V19.5V20.75C24 21.4531 23.4375 22 22.8 22H22.2C21.525 22 21 21.4531 21 20.75V19.5H11.4V20.75C11.4 21.4531 10.8375 22 10.2 22H9.6C8.925 22 8.4 21.4531 8.4 20.75V19.5V15.75C8.4 14.7734 8.925 13.9141 9.75 13.5234L10.725 10.3984ZM11.4 15.4375C10.875 15.4375 10.5 15.8672 10.5 16.375C10.5 16.9219 10.875 17.3125 11.4 17.3125C11.8875 17.3125 12.3 16.9219 12.3 16.375C12.3 15.8672 11.8875 15.4375 11.4 15.4375ZM20.1 16.375C20.1 16.9219 20.475 17.3125 21 17.3125C21.4875 17.3125 21.9 16.9219 21.9 16.375C21.9 15.8672 21.4875 15.4375 21 15.4375C20.475 15.4375 20.1 15.8672 20.1 16.375Z" fill="black"/>
</svg>

<svg xmlns="http://www.w3.org/2000/svg" width="24" height="24" fill="currentColor" class="icon-car-bus-solid" viewBox="0 0 24 24">
  <mask id="a" width="24" height="20" x="0" y="2" maskUnits="userSpaceOnUse" style="mask-type:alpha">
    <path d="M1.2 18.25C.525 18.25 0 17.703 0 17V4.93c0-.625.338-1.211.863-1.485C2.663 2.508 4.613 2 6.6 2h1.163C9.75 2 11.7 2.508 13.5 3.445c.525.274.9.86.9 1.485V7h-.825q-.843 0-1.575.352v-.665c0-.507-.412-.937-.9-.937H7.8v5h1.538l-.6 1.914A3.86 3.86 0 0 0 7.2 15.75v2.5H4.8v1.25c0 .703-.562 1.25-1.2 1.25H3c-.675 0-1.2-.547-1.2-1.25v-1.25zm2.1-12.5c-.525 0-.9.43-.9.938v3.125c0 .546.375.937.9.937h3.3v-5zm.3 7.813c-.525 0-.9.43-.9.937 0 .547.375.938.9.938.488 0 .9-.391.9-.938 0-.508-.412-.937-.9-.937m9.975-2.813c-.262 0-.487.195-.562.43l-.675 2.07h7.687l-.675-2.07c-.075-.235-.3-.43-.562-.43zm-2.85-.352c.412-1.289 1.575-2.148 2.85-2.148h5.213c1.274 0 2.437.86 2.85 2.148l.974 3.125A2.46 2.46 0 0 1 24 15.75v5c0 .703-.562 1.25-1.2 1.25h-.6c-.675 0-1.2-.547-1.2-1.25V19.5h-9.6v1.25c0 .703-.562 1.25-1.2 1.25h-.6c-.675 0-1.2-.547-1.2-1.25v-5c0-.977.525-1.836 1.35-2.227zm.675 5.04c-.525 0-.9.43-.9.937 0 .547.375.938.9.938.487 0 .9-.391.9-.938 0-.508-.413-.937-.9-.937m8.7.937c0 .547.375.938.9.938.488 0 .9-.391.9-.938 0-.508-.412-.937-.9-.937-.525 0-.9.43-.9.937"/>
  </mask>
  <g mask="url(#a)">
    <path d="M0 0h24v24H0z"/>
  </g>
</svg>
